X:142
T:Sir Philip McHugh
M:9/8
L:1/8
K:G
D | "G"G2c BGB "D7"c2A | "G"B2d cAG "D"F2D | "G"G2c BGB "D7"c2A | "G"B2d "D7"cAF "G"G2 :|
|: B | "D"ABA AFD AFD | "D"ABA AFD "G"G2B | "D"ABA AFD AFD | "G"B2d "D7"cAF "G"G2 :|

%%newpage

